flags/al.svg

<?xml version="1.0" encoding="UTF-8"?>
<!DOCTYPE svg PUBLIC "-//W3C//DTD SVG 1.1//EN" "http://www.w3.org/Graphics/SVG/1.1/DTD/svg11.dtd">
<svg xmlns="http://www.w3.org/2000/svg" xmlns:xlink="http://www.w3.org/1999/xlink" width="700px" height="500px" viewBox="-350 -250 700 500">
	<title>Flag of Albania</title>

	<rect id="field" x="-50%" y="-50%" width="100%" height="100%" fill="#ce1126"/>
	<g id="eagle" fill="black">
		<path id="righthalf" d="
		M 52.84375,-154.12159 C 54.2823,-154.07984 55.47001,-153.84822 56.28125,-153.40284
		C 56.98114,-153.02108 58.11149,-152.19648 58.875,-151.49659 C 59.89302,-150.60582
		61.44677,-150.28122 66.21875,-150.09034 C 73.02675,-149.89946 75.75422,-148.79952
		77.28125,-145.80909 C 78.36289,-143.70943 78.35865,-143.54645 79.0625,-141.77784
		C 75.90432,-142.67801 72.12416,-143.97097 70.40625,-143.65284 C 68.05208,-143.14384
		65.5,-141.69986 65.5,-140.80909 C 65.5,-140.49095 66.26548,-139.7266 67.15625,-139.09034
		C 69.79275,-138.44215 70.65486,-138.44215 75.3125,-139.09034 C 81.42063,-140.04474
		81.87021,-140.2373 83.90625,-142.52784 C 85.05153,-143.86399 86.70298,-145.69732
		87.59375,-146.71534 C 89.37528,-148.68774 91.92173,-148.99575 92.8125,-147.27784 C
		93.70327,-145.68718 91.40458,-143.38426 87.96875,-140.90284 C 84.97832,-138.73955
		82.87698,-137.22548 77.46875,-136.65284 C 75.78265,-136.46198 62.91751,-136.51869
		62.28125,-136.15284 C 61.64497,-135.78698 68.89947,-132.68601 76.125,-134.84034
		C 74.40709,-131.3409 67.21877,-128.63285 60.15625,-127.99659 C 52.26659,-127.23305
		46.84912,-125.53066 41.25,-121.84034 C 35.33276,-117.95914 32.2348,-114.53432 29.5625,-108.87159
		C 26.82657,-103.27244 25.86937,-98.56334 26.1875,-93.02784 C 26.56926,-86.21981 29.8015,-82.71534
		35.71875,-82.71534 C 39.79083,-82.71532 41.40259,-83.47941 43.375,-86.21534 C 44.64754,-88.12411
		44.81137,-88.99319 44.875,-96.24659 C 44.875,-103.05458 45.13598,-104.58216 46.28125,-106.80909 C
		48.57179,-111.32652 51.8288,-113.43578 61.5,-116.87159 C 66.33561,-118.58951 72.81867,-121.06556
		76,-122.46534 C 82.36262,-125.13766 82.62922,-125.07317 84.15625,-120.74659 C 84.66526,-119.28317
		85.55235,-118.15509 86.125,-118.02784 C 87.97016,-117.64607 97.82826,-121.00503 104,-124.05909
		C 114.62559,-129.40371 120.15315,-134.12579 125.625,-142.71534 C 128.86995,-147.80543
		131.22494,-149.26237 134.40625,-148.37159 C 138.03295,-147.35358 140.06137,-144.23505
		140.125,-139.59034 C 140.18863,-135.51823 138.21622,-132.14357 133.0625,-127.37159 C
		124.3457,-119.29106 108.06142,-111.91213 94,-109.62159 C 89.35529,-108.92167 87.125,-107.14216
		87.125,-104.21534 C 87.125,-99.95237 91.76827,-98.21647 103.09375,-98.15284 C 113.71934,-98.15283
		120.41187,-100.78119 127.15625,-107.65284 C 131.48285,-112.17027 133.01295,-112.85949
		135.8125,-111.77784 C 137.21228,-111.20519 138.6875,-108.16328 138.6875,-105.80909 C
		138.68751,-100.97347 132.30351,-93.20577 125.75,-90.21534 C 120.85078,-87.92478 116.35164,-87.14721
		108.84375,-87.46534 C 103.24463,-87.6562 101.14698,-88.12243 96.375,-89.84034 C 86.83107,-93.33975
		85.98902,-93.45436 84.84375,-92.30909 C 83.95298,-91.4183 83.95186,-91.1565 84.90625,-89.18409 C
		86.56055,-86.00275 92.81081,-80.09175 96.4375,-78.24659 C 105.09068,-73.85635 113.594,-74.81471
		125.9375,-81.55909 C 132.23651,-84.99489 135.56109,-85.11204 137.40625,-82.12159 C
		138.10614,-80.97629 138.6875,-79.26348 138.6875,-78.30909 C 138.68751,-75.89126 135.49297,-72.45016
		130.59375,-69.77784 C 124.29474,-66.21475 119.84828,-65.09034 112.53125,-65.09034 C
		105.97773,-65.09032 101.84068,-66.08752 93.1875,-69.77784 C 88.79729,-71.62298 87.02029,-71.83161
		85.875,-70.55909 C 84.79336,-69.15929 86.68018,-65.47268 90.625,-61.52784 C 96.54223,-55.61058
		108.32685,-51.13933 116.34375,-51.90284 C 118.63431,-52.09369 121.42483,-53.00644
		123.90625,-54.21534 C 128.99637,-56.76037 133.52196,-56.94451 135.8125,-54.59034
		C 138.73931,-51.72713 137.58221,-47.25391 132.9375,-43.30909 C 129.88344,-40.63678
		126.71284,-39.62159 121.75,-39.62159 C 116.15088,-39.62158 112.71062,-40.8271 100.8125,-46.87159
		C 89.9324,-52.34343 87.38626,-53.18437 86.75,-51.40284 C 85.98647,-49.55766 88.02364,-46.44395
		93.75,-40.59034 C 105.52086,-28.6922 112.21112,-26.34653 125,-29.52784 C 134.03494,-31.81838
		137.13401,-30.26322 136.625,-24.02784 C 136.24324,-19.63763 134.79195,-17.565 130.65625,-15.46534
		C 127.98393,-14.06554 126.71735,-13.87159 121.5,-13.87159 C 116.60077,-13.93521 114.88992,-14.19507
		112.28125,-15.34034 C 107.76379,-17.43999 97.81787,-24.22237 92.21875,-29.12159 C 85.3471,-35.16607
		82.6875,-36.33077 82.6875,-33.34034 C 82.6875,-30.41351 93.88173,-15.01208 100.5625,-8.8403398
		C 103.10755,-6.4861398 106.92706,-3.7356098 109.28125,-2.5903398 C 113.16245,-0.68152983
		114.00026,-0.49545983 119.28125,-0.55908983 C 122.39893,-0.55906983 127.01856,-0.68070983
		129.5,-0.87158983 C 134.97186,-1.1896898 136.75,-0.12329983 136.75,3.5034102 C 136.75,6.8756302
		131.99524,11.38374 126.96875,12.84716 C 116.59766,15.90121 105.27903,10.63069 91.28125,-3.6215898 C
		80.91016,-14.18355 79.42314,-13.53209 85.53125,-0.93408983 C 92.02114,12.55471 100.25645,22.15119
		108.71875,26.15966 C 113.10896,28.19567 114.23589,28.32492 125.625,27.81591 C 130.65149,27.56136
		132.9375,28.88573 132.9375,32.00341 C 132.9375,33.59407 132.37528,34.69063 130.59375,36.47216 C
		124.10386,42.96203 113.34997,43.20415 102.40625,37.15966 C 96.23449,33.72383 81.21005,17.25654
		72.875,4.7221602 C 68.42117,-1.9585698 67.27703,-2.7882598 65.75,-0.43408983 C 64.79559,0.96570017
		64.73985,1.7305902 65.3125,4.7846602 C 67.09404,14.20138 71.59823,21.39331 78.40625,25.84716
		C 82.79646,28.64667 83.82714,30.30099 83,32.90966 C 81.98198,36.15458 75.75509,37.72582
		71.9375,35.75341 C 67.42004,33.46285 61.69286,24.82581 56.09375,11.90966 C 52.08528,2.6838602
		51.81616,2.3471602 49.84375,2.3471602 C 44.69003,2.3471802 46.48226,13.18865 52.78125,20.37841
		C 55.58082,23.55969 56.03493,25.72188 54.0625,27.50341 C 52.40822,29.03044 49.92146,28.45921
		45.53125,25.65966 C 41.45916,23.05097 39.24043,20.41839 36.25,14.62841 C 32.49604,7.4386102
		30.94593,9.2989902 34,17.31591 C 38.26296,28.76861 48.46534,38.93751 62.78125,46.19091 C
		65.00818,47.27252 66.78125,48.37503 66.78125,48.56591 C 66.78125,48.75679 65.49692,50.4105
		63.90625,52.12841 C 62.31559,53.90991 61.0625,55.49778 61.0625,55.81591 C 61.0625,56.45216
		69.75504,60.40234 80.0625,64.34716 L 89.3125,67.90966 L 94.0625,64.90966 C 100.61601,60.90117
		104.23649,57.91445 105,55.87841 C 106.52703,51.93353 111.43581,49.32464 115.0625,50.59716 C
		116.33503,51.04252 117.86344,50.98342 120.28125,50.34716 C 125.88035,48.88374 129.2817,53.34492
		130.15625,55.65966 C 128.21962,55.94768 129.14922,55.87954 127.78125,55.81591 C 122.05489,55.5614
		121.48142,55.73961 119,58.28466 C 116.39131,60.95693 112.8933,62.29367 110.09375,61.78466 C
		108.82123,61.53011 107.16357,62.23849 103.21875,64.84716 C 100.29195,66.69233 97.9375,68.40516
		97.9375,68.65966 C 97.9375,69.29588 100.92931,69.29817 110.21875,68.53466 C 116.83587,68.02562
		117.93834,67.77819 119.65625,66.37841 C 122.26493,64.15148 125.26182,63.69851 128.125,65.03466
		C 129.39755,65.6709 131.65935,66.18978 133.25,66.25341 C 134.9679,66.31705 136.7621,66.8649
		137.84375,67.62841 C 139.68892,69.02819 140.93224,69.74904 141.78125,72.53466 C 138.32556,72.477
		139.45019,72.47779 136.96875,72.15966 C 132.70579,71.52341 132.2424,71.57576 130.90625,72.78466
		C 130.07911,73.48453 128.82603,74.4654 128.0625,74.84716 C 126.15371,75.80156 121.75591,75.71118
		119.65625,74.56591 C 118.3201,73.92961 115.31026,73.69204 108.375,73.62841 C 103.15763,73.56476
		98.59938,73.56478 98.28125,73.62841 C 97.8995,73.62838 99.98057,75.03549 102.84375,76.75341 C
		107.74299,79.74384 108.20692,79.84829 112.40625,79.78466 C 118.00537,79.72101 121.17173,81.37784
		122.0625,84.94091 C 122.38063,86.21339 122.96199,88.50988 123.34375,89.90966 C 124.23452,93.28183
		124.5731,93.80285 122.09375,99.62841 C 119.38359,93.2457 120.29589,95.18106 119.46875,93.97216
		C 118.1326,91.99972 117.61881,91.69541 114.4375,91.44091 C 110.04729,91.05912 107.99805,89.72162
		106.34375,86.22216 C 105.26211,83.80432 104.07236,82.78635 98.21875,79.15966 C 90.20183,74.19681
		90.69119,74.21031 81.65625,78.40966 C 77.20242,80.50931 75.54478,81.57126 74.78125,83.03466
		C 73.4451,85.70694 70.58756,86.73905 67.40625,85.78466 C 64.4158,84.8939 63.09854,85.39022
		61.0625,88.25341 C 60.20356,89.49411 60.14642,89.24974 58.875,90.40966 C 58.51885,88.62763
		58.5,88.37871 58.5,86.59716 C 58.5,83.98848 58.81531,83.47047 62.1875,80.03466 C 66.13234,76.08979
		68.54307,75.01551 71.40625,76.09716 C 72.7424,76.6062 73.84542,76.43783 77.28125,74.84716 C
		81.09882,73.12926 82.56616,71.72216 80.59375,71.72216 C 80.21199,71.72216 74.03126,69.42684
		66.96875,66.69091 L 54.125,61.72216 L 52.21875,63.25341 C 48.71931,65.98933 43.1678,68.53466
		40.75,68.53466 C 38.52308,68.53462 38.26239,68.35645 37.5625,66.06591 C 36.48085,62.43919
		29.0397,48.11154 25.03125,42.00341 C 18.35048,31.69591 14.67795,29.00735 11.6875,32.31591 C
		10.73311,33.39752 10.46762,34.62109 10.53125,38.56591 C 10.6585,50.20952 17.28319,65.41386
		26,74.00341 C 30.58109,78.58447 35.61064,81.08139 41.71875,81.97216 C 46.42711,82.60842
		49.59375,83.79451 49.59375,85.00341 C 49.59375,86.27591 46.47241,89.98539 44.5,91.00341 C
		42.78208,91.89414 41.12669,92.06816 37.5,91.94091 C 33.10979,91.75004 32.29308,91.51721
		28.09375,88.97216 C 23.95805,86.49072 23.32714,86.27 22.5,87.09716 C 21.67284,87.92429
		21.61374,88.52537 22.25,90.81591 C 23.58616,95.77875 27.13483,98.04789 35.40625,99.06591 C
		43.86855,100.14755 46.73705,102.71484 43.9375,106.65966 C 42.09233,109.20471 38.92146,110.53466
		34.53125,110.53466 C 29.56839,110.53463 25.28775,108.34803 19.625,103.00341 C 17.2072,100.77649
		14.97551,99.12391 14.59375,99.37841 C 13.70298,99.88737 13.76436,104.97946 14.71875,108.09716 C
		15.60952,111.08755 19.61345,115.79902 22.03125,116.75341 C 22.98566,117.13516 25.43384,117.90065
		27.40625,118.40966 C 34.34152,120.31843 35.33673,123.00847 30.4375,126.25341 C 27.25619,128.35304
		21.97495,128.53607 18.09375,126.69091 C 15.5487,125.54561 8.5549,118.9826 7.21875,116.62841
		C 6.07348,114.52874 4.86824,116.07321 5.25,119.19091 C 5.5045,121.79954 7.03294,124.7303
		10.46875,129.56591 C 13.26832,133.38349 12.30323,138.53576 7.53125,145.53466 C 4.36386,150.20522
		1.39093,153.53736 0,154.12841 C -0.27311,154.01236 -0.61542,153.7577 -1,153.44091 L -1,-106.59034
		C -0.66932,-106.52313 -0.33606,-106.46965 0,-106.46534 C 1.0478,-106.47877 2.11852,-106.80416
		2.90625,-107.40284 C 4.05152,-108.22996 4.0504,-108.3378 2.96875,-110.24659 C 1.6326,-112.72798
		2.08333,-113.6306 4.4375,-113.12159 C 6.53716,-112.67619 8.43159,-113.51629 10.53125,-115.93409 C
		12.44005,-118.03375 12.44456,-118.26996 10.28125,-118.71534 C 6.40005,-119.54247 5.06193,-122.34034
		8.625,-122.34034 C 11.48818,-122.34033 17.84488,-126.49516 17.78125,-128.34034 C 17.71762,-128.7221
		16.5259,-129.6092 15.0625,-130.30909 C 11.75392,-131.89975 11.66468,-133.10244 14.71875,-134.18409
		C 17.70918,-135.20212 22.61712,-138.50417 23.0625,-139.84034 C 23.38063,-140.47661
		22.6878,-141.16832 20.90625,-142.05909 C 17.66131,-143.71336 13.34375,-147.66269
		13.34375,-148.87159 C 13.34375,-149.88964 14.2849,-149.83276 19.375,-148.49659
		C 20.77478,-148.11483 23.95495,-147.80909 26.5,-147.80909 C 30.19032,-147.80909
		31.78067,-148.18717 35.34375,-149.77784 C 41.83363,-152.64101 48.5281,-154.24685
		52.84375,-154.12159 z M 47.84375,-144.74659 C 45.04955,-144.87756 47.5941,-142.28168
		46.25,-141.40284 C 44.59572,-140.3212 40.52408,-145.90324 42.90625,-139.52784 C 44.24241,-138.44617
		51.25873,-138.94169 52.53125,-140.27784 C 53.80377,-141.55038 52.78604,-143.80233 50.75,-144.18409
		C 49.42469,-144.56179 48.48856,-144.71637 47.84375,-144.74659 z
		"
		/>
		<use xlink:href="#righthalf" transform="scale(-1,1)"/>
	</g>
</svg>

<svg xmlns="http://www.w3.org/2000/svg" xmlns:xlink="http://www.w3.org/1999/xlink" width="700" height="500" viewBox="-350 -250 700 500"><rect width="100%" height="100%" x="-50%" y="-50%" fill="#ce1126"/><path id="a" d="M52.844-154.122c1.438.042 2.626.274 3.437.72.7.38 1.83 1.206 2.594 1.905 1.018.891 2.572 1.216 7.344 1.407 6.808.19 9.535 1.29 11.062 4.28 1.082 2.1 1.078 2.264 1.781 4.032-3.158-.9-6.938-2.193-8.656-1.875-2.354.51-4.906 1.953-4.906 2.844 0 .318.765 1.082 1.656 1.719 2.637.648 3.499.648 8.156 0 6.109-.955 6.558-1.147 8.594-3.438 1.146-1.336 2.797-3.17 3.688-4.187 1.781-1.973 4.328-2.28 5.219-.563.89 1.59-1.408 3.894-4.844 6.375-2.99 2.163-5.092 3.678-10.5 4.25-1.686.191-14.551.134-15.188.5-.636.366 6.618 3.467 13.844 1.313-1.718 3.5-8.906 6.207-15.969 6.843-7.89.764-13.307 2.466-18.906 6.157-5.917 3.88-9.015 7.306-11.687 12.968-2.736 5.6-3.694 10.309-3.375 15.844.381 6.808 3.614 10.313 9.53 10.313 4.073 0 5.685-.764 7.657-3.5 1.273-1.91 1.436-2.778 1.5-10.032 0-6.808.261-8.335 1.406-10.562 2.29-4.518 5.548-6.627 15.219-10.063 4.836-1.718 11.319-4.194 14.5-5.593 6.363-2.673 6.63-2.608 8.156 1.718.51 1.464 1.396 2.592 1.969 2.72 1.845.38 11.703-2.978 17.875-6.032 10.626-5.345 16.153-10.067 21.625-18.656 3.245-5.09 5.6-6.547 8.781-5.657 3.627 1.018 5.655 4.137 5.719 8.782.064 4.072-1.909 7.446-7.062 12.218-8.717 8.08-25.002 15.46-39.063 17.75-4.645.7-6.875 2.48-6.875 5.407 0 4.263 4.643 5.999 15.969 6.062 10.625 0 17.318-2.628 24.062-9.5 4.327-4.517 5.857-5.206 8.656-4.125 1.4.573 2.875 3.615 2.875 5.969 0 4.836-6.383 12.603-12.937 15.594-4.9 2.29-9.398 3.068-16.906 2.75-5.6-.191-7.697-.657-12.469-2.375-9.544-3.5-10.386-3.614-11.531-2.47-.891.892-.892 1.154.062 3.126 1.655 3.181 7.905 9.092 11.531 10.937 8.654 4.39 17.157 3.432 29.5-3.312 6.3-3.436 9.624-3.553 11.47-.563.7 1.146 1.28 2.859 1.28 3.813 0 2.418-3.194 5.859-8.093 8.531-6.3 3.563-10.746 4.688-18.063 4.688-6.553 0-10.69-.998-19.344-4.688-4.39-1.845-6.167-2.054-7.312-.781-1.082 1.4.805 5.086 4.75 9.031 5.917 5.917 17.702 10.389 25.719 9.625 2.29-.19 5.08-1.103 7.562-2.312 5.09-2.545 9.616-2.73 11.906-.375 2.927 2.863 1.77 7.336-2.875 11.28-3.054 2.673-6.224 3.688-11.187 3.688-5.6 0-9.04-1.205-20.937-7.25-10.88-5.471-13.427-6.312-14.063-4.53-.764 1.844 1.274 4.958 7 10.812 11.77 11.898 18.461 14.243 31.25 11.062 9.035-2.29 12.134-.735 11.625 5.5-.382 4.39-1.833 6.463-5.969 8.563-2.672 1.4-3.939 1.593-9.156 1.593-4.9-.063-6.61-.323-9.219-1.468-4.517-2.1-14.463-8.882-20.062-13.782-6.872-6.044-9.531-7.209-9.531-4.218 0 2.926 11.194 18.328 17.874 24.5 2.546 2.354 6.365 5.104 8.72 6.25 3.88 1.908 4.718 2.095 10 2.03 3.117 0 7.737-.12 10.218-.312 5.472-.318 7.25.749 7.25 4.375 0 3.373-4.755 7.88-9.781 9.344-10.371 3.054-21.69-2.216-35.688-16.469-10.37-10.562-11.858-9.91-5.75 2.688 6.49 13.489 14.725 23.085 23.188 27.094 4.39 2.036 5.517 2.165 16.906 1.656 5.026-.255 7.313 1.07 7.313 4.187 0 1.591-.563 2.688-2.344 4.47-6.49 6.489-17.244 6.731-28.188.687-6.172-3.436-21.196-19.903-29.531-32.438-4.454-6.68-5.598-7.51-7.125-5.156-.954 1.4-1.01 2.165-.437 5.219 1.781 9.416 6.285 16.608 13.093 21.062 4.39 2.8 5.421 4.454 4.594 7.063-1.018 3.245-7.245 4.816-11.062 2.843-4.518-2.29-10.245-10.927-15.844-23.843-4.009-9.226-4.278-9.563-6.25-9.563-5.154 0-3.362 10.842 2.937 18.031 2.8 3.182 3.254 5.344 1.282 7.125-1.655 1.527-4.142.956-8.532-1.843-4.072-2.609-6.29-5.242-9.281-11.032-3.754-7.19-5.304-5.329-2.25 2.688 4.263 11.453 14.465 21.622 28.781 28.875 2.227 1.082 4 2.184 4 2.375s-1.284 1.844-2.875 3.562c-1.59 1.782-2.843 3.37-2.843 3.688 0 .636 8.692 4.586 19 8.531l9.25 3.563 4.75-3c6.553-4.009 10.173-6.996 10.937-9.032 1.527-3.944 6.436-6.553 10.063-5.28 1.272.445 2.8.385 5.218-.25 5.6-1.464 9 2.997 9.875 5.312-1.936.288-1.007.22-2.375.156-5.726-.255-6.3-.076-8.781 2.469-2.609 2.672-6.107 4.009-8.906 3.5-1.273-.255-2.93.453-6.875 3.062-2.927 1.845-5.281 3.558-5.281 3.813 0 .636 2.991.638 12.28-.125 6.618-.51 7.72-.757 9.438-2.157 2.609-2.227 5.606-2.68 8.469-1.343 1.273.636 3.534 1.155 5.125 1.218 1.718.064 3.512.612 4.594 1.375 1.845 1.4 3.088 2.121 3.937 4.907-3.455-.058-2.33-.057-4.812-.375-4.263-.637-4.727-.584-6.063.625-.827.7-2.08 1.68-2.844 2.062-1.908.955-6.306.864-8.406-.281-1.336-.636-4.346-.874-11.281-.938-5.217-.063-9.776-.063-10.094 0-.382 0 1.7 1.407 4.563 3.125 4.899 2.99 5.363 3.095 9.562 3.032 5.6-.064 8.766 1.593 9.656 5.156.319 1.272.9 3.569 1.282 4.969.89 3.372 1.23 3.893-1.25 9.718-2.71-6.382-1.798-4.447-2.625-5.656-1.336-1.972-1.85-2.277-5.031-2.531-4.39-.382-6.44-1.72-8.094-5.219-1.082-2.418-2.272-3.436-8.125-7.062-8.017-4.963-7.528-4.95-16.563-.75-4.454 2.1-6.111 3.161-6.875 4.625-1.336 2.672-4.193 3.704-7.375 2.75-2.99-.891-4.307-.395-6.344 2.468-.858 1.241-.916.997-2.187 2.157-.356-1.782-.375-2.031-.375-3.813 0-2.609.315-3.127 3.688-6.562 3.944-3.945 6.355-5.02 9.218-3.938 1.336.51 2.44.34 5.875-1.25 3.818-1.718 5.285-3.125 3.313-3.125-.382 0-6.563-2.295-13.625-5.031l-12.844-4.969-1.906 1.531c-3.5 2.736-9.051 5.282-11.469 5.282-2.227 0-2.488-.179-3.187-2.47C36.48 62.44 29.04 48.113 25.03 42.004c-6.68-10.307-10.353-12.996-13.343-9.687-.955 1.082-1.22 2.305-1.157 6.25C10.658 50.21 17.283 65.414 26 74.003c4.581 4.581 9.61 7.078 15.719 7.97 4.708.635 7.875 1.822 7.875 3.03 0 1.273-3.122 4.982-5.094 6-1.718.891-3.373 1.065-7 .938-4.39-.191-5.207-.424-9.406-2.969-4.136-2.481-4.767-2.702-5.594-1.875s-.886 1.428-.25 3.719c1.336 4.963 4.885 7.232 13.156 8.25 8.463 1.082 11.331 3.649 8.532 7.594-1.846 2.545-5.017 3.875-9.407 3.875-4.963 0-9.243-2.187-14.906-7.532-2.418-2.227-4.65-3.88-5.031-3.625-.891.51-.83 5.601.125 8.72.89 2.99 4.894 7.701 7.312 8.655.955.382 3.403 1.148 5.375 1.657 6.936 1.908 7.93 4.598 3.032 7.843-3.182 2.1-8.463 2.283-12.344.438-2.545-1.145-9.54-7.708-10.875-10.063-1.146-2.1-2.35-.555-1.969 2.563.255 2.609 1.783 5.54 5.219 10.375 2.8 3.817 1.834 8.97-2.938 15.969-3.167 4.67-6.14 8.002-7.531 8.593-.273-.116-.615-.37-1-.687V-106.59c.33.067.664.12 1 .125 1.048-.014 2.119-.34 2.906-.938 1.146-.827 1.144-.935.063-2.844-1.336-2.481-.886-3.384 1.469-2.875 2.1.446 3.994-.394 6.093-2.812 1.909-2.1 1.914-2.336-.25-2.781-3.881-.827-5.22-3.625-1.656-3.625 2.863 0 9.22-4.155 9.156-6-.063-.382-1.255-1.27-2.718-1.97-3.31-1.59-3.398-2.792-.344-3.874 2.99-1.018 7.898-4.32 8.344-5.656.318-.637-.375-1.328-2.157-2.22-3.245-1.653-7.562-5.603-7.562-6.812 0-1.018.94-.96 6.031.375 1.4.382 4.58.688 7.125.688 3.69 0 5.28-.378 8.844-1.969 6.49-2.863 13.184-4.469 17.5-4.344m-5 9.375c-2.794-.13-.25 2.465-1.594 3.344-1.654 1.082-5.726-4.5-3.344 1.875 1.336 1.082 8.353.586 9.625-.75 1.273-1.272.255-3.524-1.781-3.906-1.325-.378-2.261-.532-2.906-.563"/><use xlink:href="#a" transform="scale(-1 1)"/></svg>
